img/partners/raf-bank.svg

<svg width="400" height="100" viewBox="0 0 400 100" fill="none" xmlns="http://www.w3.org/2000/svg">
<path d="M136 74.88C136 84.6 130.6 90 120.88 90H71.12C61.4 90 56 84.6 56 74.88V25.12C56 15.4 61.4 10 71.12 10H120.9C130.6 10 136 15.4 136 25.12V74.88Z" fill="#9AACDE"/>
<path fill-rule="evenodd" clip-rule="evenodd" d="M107.439 46.0993V38.4595L110.198 35.6984V42.3184L112.6 44.7177L122.258 35.059L124.639 37.4377C124.619 35.6388 124.259 30.4188 119.839 26.0787C115.079 21.4796 109.919 23.5582 108.159 25.318L98.5187 34.9582L100.98 37.4192L96.0002 42.4377L91.0187 37.4582L93.4796 34.9994L83.8394 25.3592C82.0795 23.5993 76.9192 21.5187 72.1597 26.1178C67.7395 30.4578 67.3797 35.6778 67.3591 37.4788L69.7399 35.0981L79.3986 44.7588L81.7999 42.3596V35.7395L84.559 38.4985V46.1383L88.4385 49.9994L69.3184 69.1194L76.8801 76.6585L96.0002 57.559L115.118 76.6791L122.68 69.1379L103.56 49.9994L107.439 46.0993ZM149.341 53.3402H163.761V57.8797H154.742V62.5405H157.742C159.76 62.5405 162.361 62.781 164.32 64.7013C165.161 65.5401 166.202 67.08 166.202 69.5594C166.202 70.3078 166.109 71.0253 165.93 71.6955C165.63 72.8139 165.085 73.7967 164.32 74.5594C163.8 75.0796 163.21 75.4784 162.563 75.7806C162.269 75.9163 161.962 76.0335 161.644 76.1342C161.487 76.1836 161.329 76.2288 161.167 76.2699C159.991 76.568 158.679 76.6606 157.281 76.6606H149.341V53.3402ZM156.862 72.3205C157.602 72.3205 158.922 72.2609 159.76 71.5804C159.923 71.4406 160.2 71.1651 160.404 70.7272C160.552 70.4126 160.661 70.0138 160.661 69.5203C160.661 69.3435 160.647 69.177 160.622 69.0208C160.595 68.8542 160.554 68.7 160.505 68.5561C160.427 68.33 160.324 68.1326 160.209 67.962C160.1 67.8016 159.978 67.6659 159.857 67.5528C159.804 67.5035 159.75 67.4583 159.697 67.4171L159.621 67.3596C158.782 66.7592 157.421 66.7407 156.862 66.7407H154.721V72.3411H156.862V72.3205ZM185.76 61.0602H180.721V62.8201C179.748 61.4981 178.455 60.9225 177.312 60.6881C176.763 60.575 176.249 60.5401 175.819 60.5401C173.661 60.5401 171.761 61.3193 170.4 62.6803C168.961 64.1194 167.98 66.3604 167.98 68.9796C167.98 71.0397 168.619 73.0791 170.26 74.8205C171.981 76.64 173.86 77.1992 176.101 77.1992C176.761 77.1992 177.593 77.117 178.43 76.7592C179.238 76.4138 180.052 75.8115 180.721 74.7794V76.6606H185.76V61.0602ZM173.161 68.8398C173.161 68.0689 173.354 67.4439 173.615 66.9504C173.829 66.5495 174.086 66.235 174.32 66.0006C174.98 65.3407 175.98 64.8801 177.061 64.9007C177.98 64.9007 179.1 65.2399 179.859 65.98C179.999 66.1116 180.128 66.2555 180.246 66.4097C180.379 66.5886 180.496 66.7819 180.597 66.9854C180.873 67.5384 181.021 68.1758 181.021 68.8398C181.021 70.1803 180.459 71.161 179.799 71.7798C179.471 72.1087 179.072 72.3781 178.628 72.5652C178.181 72.7543 177.69 72.8592 177.18 72.8592C175.98 72.8592 174.9 72.3801 174.199 71.64C173.759 71.1404 173.161 70.2399 173.161 68.8398ZM188.8 61.0602H193.839V66.4796H199.481V61.0602H204.52V76.6606H199.481V70.5401H193.839V76.6606H188.8V61.0602ZM212.579 61.0602H207.54V76.6606H212.579V69.7403L217.9 76.6606H224.401L217.26 68.3012L223.94 61.0602H217.68L212.579 67.2609V61.0602ZM157.559 23.3402C159.58 23.3402 161.82 23.6198 163.679 25.2605C165.679 26.9998 165.959 29.3209 165.959 30.9204C165.959 33.8604 164.839 35.501 163.959 36.42C162.1 38.3012 159.66 38.48 158.019 38.48H154.74V46.6606H149.36V23.3402H157.559ZM154.719 34.0804H156.64C156.925 34.0804 157.289 34.0742 157.68 34.0187C158.307 33.9303 159 33.7165 159.54 33.2004C160.019 32.7194 160.42 31.9011 160.42 30.8999C160.42 30.4517 160.348 30.0384 160.219 29.6766C160.067 29.249 159.832 28.8892 159.54 28.6198C158.739 27.8612 157.579 27.7399 156.539 27.7399H154.719V34.0804ZM184.14 31.0602H179.1V32.8201C178.41 31.8805 177.556 31.3172 176.711 30.9862C175.795 30.6264 174.886 30.5401 174.199 30.5401C172.04 30.5401 170.141 31.3193 168.78 32.6803C167.341 34.1194 166.36 36.3604 166.36 38.9796C166.36 40.3119 166.627 41.6359 167.26 42.8756C167.606 43.5541 168.06 44.2058 168.64 44.8205C170.361 46.64 172.24 47.1992 174.481 47.1992C175.139 47.1992 175.965 47.119 176.798 46.7654C177.61 46.42 178.428 45.8176 179.1 44.7794V46.6606H184.14V31.0602ZM171.541 38.8398C171.541 37.4397 172.18 36.5207 172.7 36.0006C173.36 35.3407 174.38 34.8801 175.441 34.9007C175.712 34.9007 176 34.9315 176.292 34.9911C176.463 35.0261 176.633 35.0713 176.804 35.1289C177.328 35.3057 177.834 35.5853 178.239 35.98C178.626 36.346 178.926 36.8045 179.123 37.3205C179.207 37.5405 179.273 37.7707 179.32 38.0072C179.341 38.11 179.357 38.2148 179.37 38.3217C179.38 38.406 179.386 38.4924 179.39 38.5787C179.397 38.6651 179.401 38.7514 179.401 38.8398C179.401 40.1803 178.839 41.161 178.179 41.7798C177.834 42.1252 177.413 42.4048 176.942 42.5939C176.759 42.668 176.568 42.7276 176.37 42.7707L176.152 42.8139L175.949 42.8386C175.821 42.853 175.692 42.8592 175.56 42.8592C175.036 42.8592 174.534 42.7666 174.076 42.6022C173.488 42.3904 172.974 42.0573 172.579 41.64C172.139 41.1404 171.541 40.2399 171.541 38.8398ZM192.219 31.0602V39.9809L198.86 31.0602H203.541V46.6606H198.5V37.6001L191.86 46.6606H187.18V31.0602H192.219ZM201.701 24.7609C201.28 26.0191 200.441 27.1005 199.46 27.7399C198.14 28.6198 196.52 28.7206 195.361 28.7206C194.201 28.7206 192.6 28.6198 191.261 27.7399C191.146 27.6659 191.033 27.5878 190.922 27.5014C190.797 27.4048 190.673 27.2999 190.554 27.1869C190.427 27.0656 190.303 26.9381 190.184 26.8024C189.684 26.2268 189.275 25.5236 189.02 24.7609L192.519 23.3999C192.659 24.0989 193.001 24.6601 193.42 24.9994C193.88 25.3797 194.46 25.6203 195.34 25.6203C195.556 25.6203 195.753 25.6059 195.936 25.5791L196.041 25.5627L196.144 25.5421L196.282 25.5072L196.42 25.4661C196.749 25.3571 197.02 25.1967 197.26 24.9994C197.68 24.6601 198.021 24.0989 198.161 23.3999L201.701 24.7609ZM214.68 46.9011V54.4402H219.76V46.9011H219.96C223.5 46.9011 225.459 45.4393 226.36 44.5594C226.823 44.105 227.283 43.5253 227.665 42.8036C227.731 42.6803 227.795 42.5528 227.855 42.4212L227.961 42.1786C228.095 41.8559 228.212 41.5105 228.309 41.1383C228.428 40.684 228.515 40.1926 228.562 39.6601C228.574 39.5101 228.584 39.3579 228.591 39.2017C228.597 39.0619 228.599 38.9221 228.599 38.7802C228.599 37.7687 228.447 36.8785 228.198 36.1013C227.978 35.4106 227.68 34.8102 227.341 34.2942C227.26 34.1708 227.176 34.0516 227.09 33.9365L227.016 33.8398L226.888 33.6815C226.57 33.293 226.232 32.9661 225.899 32.7008C224.36 31.4796 222.04 30.8197 219.98 30.8197H219.74V23.3402H214.701V30.8197H214.46C212.38 30.8197 210.079 31.4796 208.539 32.7008C207.24 33.7411 205.84 35.7004 205.84 38.7802C205.84 41.6194 206.96 43.48 208.081 44.5594C208.979 45.4393 210.941 46.9011 214.479 46.9011H214.68ZM213.658 34.987C214.07 34.8966 214.499 34.8596 214.921 34.8801V42.8406C213.64 42.8797 212.439 42.4007 211.779 41.6606C211.179 41.0397 210.76 40.0199 210.76 38.8008C210.76 37.561 211.179 36.5598 211.779 35.9595C212.242 35.4846 212.92 35.1494 213.658 34.987ZM222.62 41.6811C221.96 42.4007 220.78 42.9003 219.481 42.8612V34.9007C220.291 34.8452 221.121 35.0261 221.802 35.3859C222.11 35.5504 222.39 35.7498 222.62 35.98C222.894 36.2535 223.13 36.6133 223.307 37.0388C223.517 37.5508 223.64 38.1552 223.64 38.8193C223.64 40.0405 223.221 41.0602 222.62 41.6811ZM238.922 54.4402V46.9011H238.72C237.581 46.9011 236.607 46.749 235.776 46.5146C235.322 46.3871 234.913 46.2329 234.545 46.0664C233.492 45.5894 232.772 45.0014 232.322 44.5594C232.168 44.4114 232.014 44.249 231.864 44.0701C231.732 43.9159 231.603 43.7494 231.479 43.5726C231.189 43.1573 230.92 42.6782 230.698 42.1314C230.449 41.5207 230.26 40.8258 230.159 40.0405C230.128 39.8041 230.106 39.5573 230.093 39.3045C230.085 39.1338 230.081 38.9591 230.081 38.7802C230.081 35.7004 231.481 33.7411 232.781 32.7008C234.32 31.4796 236.621 30.8197 238.702 30.8197H238.942V23.3402H243.981V30.8197H244.222C244.861 30.8197 245.525 30.8834 246.183 31.0068C246.516 31.0684 246.847 31.1466 247.174 31.2411C247.462 31.3234 247.744 31.418 248.019 31.5228C248.804 31.825 249.532 32.2198 250.141 32.7008C251.442 33.7411 252.84 35.7004 252.84 38.7802C252.84 39.911 252.663 40.8814 252.38 41.7119C252.125 42.4562 251.783 43.0874 251.407 43.6157C251.148 43.9776 250.875 44.2901 250.601 44.5594C250.026 45.1227 249.014 45.9245 247.431 46.4282C247.01 46.5619 246.547 46.6749 246.043 46.7572C245.484 46.8497 244.871 46.9011 244.201 46.9011H244.002V54.4402H238.922ZM239.162 34.8801C237.982 34.8205 236.74 35.2194 236.021 35.9595C235.42 36.5598 235.001 37.561 235.001 38.8008C235.001 40.0199 235.42 41.0397 236.021 41.6606C236.681 42.4007 237.881 42.8797 239.162 42.8406V34.8801ZM243.72 42.8612C245.022 42.9003 246.202 42.4007 246.862 41.6811C247.18 41.3522 247.447 40.9101 247.628 40.3859C247.789 39.9212 247.881 39.3929 247.881 38.8193C247.881 37.6001 247.462 36.5804 246.862 35.98C246.121 35.2399 244.9 34.8205 243.72 34.9007V42.8612ZM272.079 31.0602H267.04V32.8201C265.599 30.8608 263.459 30.5401 262.139 30.5401C259.98 30.5401 258.081 31.3193 256.72 32.6803C255.281 34.1194 254.3 36.3604 254.3 38.9796C254.3 40.2913 254.559 41.5948 255.17 42.818C255.519 43.517 255.984 44.1873 256.58 44.8205C258.301 46.64 260.18 47.1992 262.421 47.1992C263.72 47.1992 265.679 46.8805 267.04 44.7794V46.6606H272.079V31.0602ZM259.481 38.8398C259.481 38.1902 259.619 37.6453 259.818 37.1951C260.048 36.6729 260.361 36.2802 260.64 36.0006C261.3 35.3407 262.32 34.8801 263.381 34.9007C264.3 34.9007 265.42 35.2399 266.179 35.98C266.919 36.6791 267.341 37.7194 267.341 38.8398C267.341 40.1803 266.779 41.161 266.119 41.7798C265.459 42.4397 264.52 42.8592 263.5 42.8592C262.299 42.8592 261.22 42.3801 260.519 41.64C260.307 41.3994 260.059 41.0643 259.857 40.6264C259.641 40.1556 259.481 39.5635 259.481 38.8398ZM280.159 31.0602V39.9809L286.8 31.0602H291.481V46.6606H286.44V37.6001L279.799 46.6606H275.12V31.0602H280.159ZM289.641 24.7609C289.446 25.3448 289.16 25.8896 288.813 26.3707C288.57 26.7078 288.297 27.0121 288.001 27.2773C287.809 27.45 287.608 27.6042 287.4 27.7399C287.065 27.9619 286.711 28.1346 286.35 28.2703C285.934 28.4245 285.511 28.5273 285.096 28.5952C284.45 28.7 283.827 28.7206 283.301 28.7206C282.141 28.7206 280.54 28.6198 279.201 27.7399C278.221 27.119 277.38 26.0191 276.96 24.7609L280.459 23.3999C280.599 24.0989 280.941 24.6601 281.36 24.9994C281.59 25.1885 281.849 25.3427 282.162 25.4496C282.474 25.5586 282.84 25.6203 283.28 25.6203C284.16 25.6203 284.74 25.3797 285.2 24.9994C285.414 24.8267 285.607 24.5964 285.766 24.3189C285.916 24.0516 286.033 23.7432 286.101 23.3999L289.641 24.7609ZM296.6 31.0993C295.76 31.42 294.68 31.9792 294.02 32.4007L295.98 35.7806C296.481 35.3592 297.001 35.0405 297.661 34.7609C298.321 34.4792 298.92 34.3394 299.721 34.3394C300.56 34.3394 301.06 34.5203 301.3 34.6211C301.662 34.7835 301.862 35.0076 301.964 35.2214C302.036 35.3756 302.061 35.5236 302.061 35.6408C302.061 35.941 301.921 36.3994 301.321 36.6791C301.158 36.7551 300.943 36.8106 300.71 36.8518C300.258 36.934 299.744 36.9607 299.44 36.9607H298.001V40.3797H299.88C300.441 40.3797 301.28 40.4805 301.701 40.6593C301.899 40.7457 302.063 40.8546 302.186 40.9924C302.349 41.1733 302.441 41.4036 302.441 41.6996C302.441 41.9278 302.396 42.2259 302.188 42.4994C302.084 42.6351 301.94 42.7666 301.74 42.8797C301.241 43.1593 300.48 43.2601 299.921 43.2601C299.39 43.2601 298.811 43.1758 298.288 43.0421C298.003 42.9681 297.735 42.8797 297.501 42.781C296.88 42.4994 296.14 41.9998 295.581 41.5207L293.441 44.8411C293.638 44.9994 293.963 45.2543 294.394 45.5339C294.596 45.6634 294.818 45.7991 295.061 45.9328C295.414 46.126 295.811 46.3152 296.241 46.4796C297.641 46.9998 299.1 47.1807 300.501 47.1807C303.101 47.1807 304.921 46.8004 306.241 45.501C306.759 44.9809 307.102 44.4258 307.314 43.8645C307.517 43.3217 307.6 42.7707 307.6 42.2403C307.6 42.1026 307.596 41.9669 307.583 41.8353C307.575 41.751 307.567 41.6667 307.554 41.5845L307.526 41.4118C307.398 40.7621 307.1 40.1865 306.561 39.6601C306.341 39.4402 305.62 38.8193 304.46 38.5397C304.579 38.4965 304.697 38.443 304.812 38.3834C304.908 38.3341 305.001 38.2786 305.093 38.2189L305.213 38.1388C305.295 38.0812 305.375 38.0195 305.453 37.9558C305.568 37.8633 305.677 37.7625 305.78 37.6597C306.541 36.86 306.72 35.98 306.72 34.9994C306.72 34.7013 306.697 34.4073 306.644 34.1215C306.615 33.9652 306.576 33.811 306.526 33.6589C306.354 33.1182 306.049 32.6083 305.56 32.1396C303.981 30.5997 301.121 30.5401 300.281 30.5401C299.08 30.5401 297.781 30.6799 296.6 31.0993ZM325.84 39.7403H314.199C314.199 40.0302 314.238 40.355 314.314 40.684C314.458 41.3049 314.736 41.9422 315.141 42.3986C315.34 42.6207 315.562 42.7954 315.795 42.9291C315.957 43.0236 316.126 43.0997 316.294 43.1593C316.794 43.3382 317.302 43.3793 317.719 43.3793C317.998 43.3793 318.28 43.3587 318.552 43.3176C318.998 43.2477 319.415 43.1182 319.74 42.9188C319.799 42.8797 320.4 42.4994 320.819 41.6194L325.581 42.1005C324.88 44.3004 323.48 45.4599 322.579 46.0191C321.08 46.9196 319.401 47.1786 317.641 47.1786C315.299 47.1786 313.239 46.7592 311.42 44.9397C310.061 43.5787 309.08 41.5187 309.08 38.92C309.08 36.6791 309.88 34.3805 311.461 32.7605C312.396 31.823 313.453 31.2638 314.491 30.9389C315.538 30.61 316.566 30.5195 317.439 30.5195C319.181 30.5195 321.699 30.8402 323.64 32.8592C325.501 34.8205 325.84 37.2588 325.84 39.1996V39.7403ZM321.2 36.7387C321.16 36.5989 320.92 35.6203 320.18 34.9192C319.974 34.728 319.736 34.5594 319.466 34.4217C319.292 34.3312 319.105 34.2551 318.903 34.1955C318.57 34.0948 318.202 34.0393 317.799 34.0393C317.365 34.0393 316.993 34.0968 316.67 34.1914C316.023 34.3826 315.572 34.7259 315.239 35.059C314.859 35.4805 314.499 36.0397 314.359 36.7387H321.2ZM333.159 31.0602H328.12V46.6606H333.159V40.5401H338.8V46.6606H343.839V31.0602H338.8V36.4796H333.159V31.0602Z" fill="#253256"/>
</svg>

<svg width="400" height="100" fill="none" xmlns="http://www.w3.org/2000/svg"><path d="M136 74.88C136 84.6 130.6 90 120.88 90H71.12C61.4 90 56 84.6 56 74.88V25.12C56 15.4 61.4 10 71.12 10h49.78c9.7 0 15.1 5.4 15.1 15.12v49.76z" fill="#9AACDE"/><path fill-rule="evenodd" clip-rule="evenodd" d="M107.439 46.1v-7.64l2.759-2.762v6.62l2.402 2.4 9.658-9.659 2.381 2.379c-.02-1.8-.38-7.02-4.8-11.36-4.76-4.598-9.92-2.52-11.68-.76l-9.64 9.64 2.461 2.461L96 42.438l-4.981-4.98L93.479 35l-9.64-9.64c-1.76-1.76-6.92-3.84-11.68.759-4.42 4.34-4.78 9.56-4.8 11.36l2.38-2.38 9.66 9.66 2.4-2.398v-6.62l2.76 2.758v7.64L88.439 50l-19.12 19.12 7.561 7.54L96 57.559l19.118 19.12 7.562-7.541-19.12-19.139 3.879-3.9zm41.902 7.24h14.42v4.54h-9.019v4.66h3c2.018 0 4.619.241 6.578 2.161.841.84 1.882 2.379 1.882 4.858 0 .749-.093 1.466-.272 2.136-.3 1.119-.845 2.102-1.61 2.864-.52.52-1.11.92-1.757 1.222a7.836 7.836 0 01-1.396.489c-1.176.298-2.488.39-3.886.39h-7.94V53.34zm7.521 18.98c.74 0 2.06-.06 2.898-.74.163-.14.44-.415.644-.853.148-.314.257-.713.257-1.207a2.851 2.851 0 00-.156-.964 2.435 2.435 0 00-.808-1.139l-.076-.057c-.839-.6-2.2-.62-2.759-.62h-2.141v5.601h2.141v-.02zm28.898-11.26h-5.039v1.76c-.973-1.322-2.266-1.898-3.409-2.132a7.43 7.43 0 00-1.493-.148c-2.158 0-4.058.78-5.419 2.14-1.439 1.44-2.42 3.68-2.42 6.3 0 2.06.639 4.1 2.28 5.84 1.721 1.82 3.6 2.38 5.841 2.38.66 0 1.492-.083 2.329-.44.808-.346 1.622-.949 2.291-1.98v1.88h5.039v-15.6zm-12.599 7.78c0-.771.193-1.396.454-1.89.214-.4.471-.715.705-.95.66-.66 1.66-1.12 2.741-1.1.919 0 2.039.34 2.798 1.08.14.132.269.275.387.43.133.179.25.372.351.575a4.16 4.16 0 01.424 1.855c0 1.34-.562 2.321-1.222 2.94a3.715 3.715 0 01-2.619 1.08c-1.2 0-2.28-.48-2.981-1.22-.44-.5-1.038-1.4-1.038-2.8zm15.639-7.78h5.039v5.42h5.642v-5.42h5.039v15.6h-5.039v-6.12h-5.642v6.12H188.8v-15.6zm23.779 0h-5.039v15.6h5.039v-6.92l5.321 6.92h6.501l-7.141-8.359 6.68-7.24h-6.26l-5.101 6.2v-6.2zm-55.02-37.72c2.021 0 4.261.28 6.12 1.92 2 1.74 2.28 4.06 2.28 5.66 0 2.94-1.12 4.581-2 5.5-1.859 1.881-4.299 2.06-5.94 2.06h-3.279v8.18h-5.38V23.34h8.199zm-2.84 10.74h1.921c.285 0 .649-.006 1.04-.061.627-.089 1.32-.302 1.86-.819.479-.48.88-1.299.88-2.3 0-.448-.072-.862-.201-1.223a2.622 2.622 0 00-.679-1.057c-.801-.759-1.961-.88-3.001-.88h-1.82v6.34zm29.421-3.02h-5.04v1.76a5.328 5.328 0 00-2.389-1.834c-.916-.36-1.825-.446-2.512-.446-2.159 0-4.058.78-5.419 2.14-1.439 1.44-2.42 3.68-2.42 6.3 0 1.332.267 2.656.9 3.896.346.678.8 1.33 1.38 1.945 1.721 1.819 3.6 2.378 5.841 2.378.658 0 1.484-.08 2.317-.434.812-.345 1.63-.947 2.302-1.986v1.882h5.04v-15.6zm-12.599 7.78c0-1.4.639-2.32 1.159-2.84.66-.66 1.68-1.12 2.741-1.1a4.335 4.335 0 011.363.229c.524.177 1.03.456 1.435.851.387.366.687.825.884 1.34a4.248 4.248 0 01.247 1.002c.01.084.016.17.02.257.007.086.011.172.011.26 0 1.341-.562 2.322-1.222 2.94a3.695 3.695 0 01-1.809.992l-.218.043-.203.025a3.47 3.47 0 01-.389.02 4.395 4.395 0 01-1.484-.257 3.858 3.858 0 01-1.497-.962c-.44-.5-1.038-1.4-1.038-2.8zm20.678-7.78v8.92l6.641-8.92h4.681v15.6H198.5V37.6l-6.64 9.06h-4.68v-15.6h5.039zm9.482-6.3c-.421 1.26-1.26 2.34-2.241 2.98-1.32.88-2.94.98-4.099.98-1.16 0-2.761-.1-4.1-.98a4.604 4.604 0 01-.707-.553 6.03 6.03 0 01-.37-.385 6.082 6.082 0 01-1.164-2.041l3.499-1.361c.14.699.482 1.26.901 1.6.46.38 1.04.62 1.92.62a4.1 4.1 0 00.596-.04l.105-.017.103-.02.138-.036.138-.04c.329-.11.6-.27.84-.468.42-.339.761-.9.901-1.6l3.54 1.362zm12.979 22.141v7.54h5.08V46.9h.2c3.54 0 5.499-1.462 6.4-2.342a7.126 7.126 0 001.305-1.755c.066-.124.13-.251.19-.383l.106-.242c.134-.323.251-.669.348-1.04a8.914 8.914 0 00.282-1.937c.006-.14.008-.28.008-.422a8.733 8.733 0 00-.401-2.679 7.333 7.333 0 00-1.108-2.164l-.074-.097-.128-.159a6.603 6.603 0 00-.989-.98c-1.539-1.221-3.859-1.881-5.919-1.881h-.24v-7.48h-5.039v7.48h-.241c-2.08 0-4.381.66-5.921 1.88-1.299 1.041-2.699 3-2.699 6.08 0 2.84 1.12 4.7 2.241 5.78.898.88 2.86 2.341 6.398 2.341h.201zm-1.022-11.914a4.83 4.83 0 011.263-.107v7.96c-1.281.04-2.482-.44-3.142-1.18-.6-.62-1.019-1.64-1.019-2.86 0-1.239.419-2.24 1.019-2.84.463-.475 1.141-.81 1.879-.973zm8.962 6.694c-.66.72-1.84 1.22-3.139 1.18v-7.96a4.41 4.41 0 012.321.485c.308.164.588.364.818.594.274.274.51.633.687 1.059a4.7 4.7 0 01.333 1.78c0 1.221-.419 2.241-1.02 2.862zm16.302 12.76V46.9h-.202c-1.139 0-2.113-.152-2.944-.386a8.658 8.658 0 01-1.231-.449 7.668 7.668 0 01-2.681-1.996 6.546 6.546 0 01-.385-.497 7.328 7.328 0 01-.781-1.442 8.333 8.333 0 01-.539-2.09 9.387 9.387 0 01-.078-1.26c0-3.08 1.4-5.04 2.7-6.08 1.539-1.221 3.84-1.881 5.921-1.881h.24v-7.48h5.039v7.48h.241c.639 0 1.303.063 1.961.187a10.356 10.356 0 011.836.516c.785.302 1.513.697 2.122 1.178 1.301 1.04 2.699 3 2.699 6.08 0 1.13-.177 2.1-.46 2.93a7.417 7.417 0 01-.973 1.905 7.18 7.18 0 01-.806.943c-.575.564-1.587 1.366-3.17 1.87a9.808 9.808 0 01-1.388.328 11.28 11.28 0 01-1.842.144h-.199v7.54h-5.08zm.24-19.56c-1.18-.06-2.422.338-3.141 1.078-.601.6-1.02 1.602-1.02 2.842 0 1.219.419 2.239 1.02 2.86.66.74 1.86 1.219 3.141 1.18v-7.96zm4.558 7.98c1.302.04 2.482-.46 3.142-1.18.318-.329.585-.77.766-1.295a4.79 4.79 0 00.253-1.567c0-1.219-.419-2.239-1.019-2.839-.741-.74-1.962-1.16-3.142-1.08v7.961zm28.359-11.8h-5.039v1.76c-1.441-1.96-3.581-2.28-4.901-2.28-2.159 0-4.058.778-5.419 2.14-1.439 1.438-2.42 3.68-2.42 6.299 0 1.311.259 2.615.87 3.838.349.699.814 1.37 1.41 2.003 1.721 1.819 3.6 2.378 5.841 2.378 1.299 0 3.258-.319 4.619-2.42v1.882h5.039v-15.6zm-12.598 7.779c0-.65.138-1.195.337-1.645.23-.522.543-.915.822-1.194.66-.66 1.68-1.12 2.741-1.1.919 0 2.039.339 2.798 1.079.74.7 1.162 1.74 1.162 2.86 0 1.34-.562 2.321-1.222 2.94a3.718 3.718 0 01-2.619 1.08c-1.201 0-2.28-.48-2.981-1.22a4.183 4.183 0 01-.662-1.014 4.238 4.238 0 01-.376-1.786zm20.678-7.78v8.92l6.641-8.92h4.681v15.6h-5.041V37.6l-6.641 9.06h-4.679v-15.6h5.039zm9.482-6.3a6.03 6.03 0 01-.828 1.61 5.662 5.662 0 01-.812.907 5.213 5.213 0 01-1.651.993 6.73 6.73 0 01-1.254.325 11.19 11.19 0 01-1.795.126c-1.16 0-2.761-.101-4.1-.981-.98-.621-1.821-1.72-2.241-2.98l3.499-1.36c.14.699.482 1.26.901 1.6.23.189.489.343.802.45.312.109.678.17 1.118.17.88 0 1.46-.24 1.92-.62a2.42 2.42 0 00.566-.681 3.11 3.11 0 00.335-.92l3.54 1.362zm6.959 6.34c-.84.32-1.92.88-2.58 1.3l1.96 3.38a6.36 6.36 0 011.681-1.02 4.897 4.897 0 012.06-.42c.839 0 1.339.18 1.579.281.362.162.562.387.664.6.072.155.097.303.097.42 0 .3-.14.758-.74 1.038a2.556 2.556 0 01-.611.173 7.769 7.769 0 01-1.27.109h-1.439v3.419h1.879c.561 0 1.4.1 1.821.28.198.086.362.195.485.332.163.181.255.412.255.708 0 .228-.045.526-.253.8a1.458 1.458 0 01-.448.38c-.499.28-1.26.38-1.819.38-.531 0-1.11-.084-1.633-.218a5.801 5.801 0 01-.787-.261c-.621-.282-1.361-.781-1.92-1.26l-2.14 3.32c.197.158.522.413.953.693a9.637 9.637 0 001.847.946c1.4.52 2.859.7 4.26.7 2.6 0 4.42-.38 5.74-1.679a4.624 4.624 0 001.073-1.636 4.619 4.619 0 00.286-1.625c0-.137-.004-.273-.017-.405-.008-.084-.016-.168-.029-.25l-.028-.173c-.128-.65-.426-1.225-.965-1.752-.22-.22-.941-.84-2.101-1.12a2.98 2.98 0 00.633-.321l.12-.08a4.174 4.174 0 00.567-.48c.761-.799.94-1.679.94-2.66 0-.298-.023-.592-.076-.878a3.58 3.58 0 00-1.084-1.982c-1.579-1.54-4.439-1.599-5.279-1.599-1.201 0-2.5.14-3.681.56zm29.24 8.64h-11.641c0 .29.039.615.115.944.144.62.422 1.258.827 1.715.199.222.421.396.654.53.162.095.331.17.499.23.5.18 1.008.22 1.425.22.279 0 .561-.02.833-.061.446-.07.863-.2 1.188-.4.059-.038.66-.419 1.079-1.299l4.762.481c-.701 2.2-2.101 3.36-3.002 3.92-1.499.9-3.178 1.159-4.938 1.159-2.342 0-4.402-.42-6.221-2.24-1.359-1.36-2.34-3.42-2.34-6.019 0-2.24.8-4.54 2.381-6.16a7.3 7.3 0 013.03-1.821c1.047-.329 2.075-.42 2.948-.42 1.742 0 4.26.321 6.201 2.34 1.861 1.962 2.2 4.4 2.2 6.34v.541zm-4.64-3.001c-.04-.14-.28-1.119-1.02-1.82a3.15 3.15 0 00-.714-.497 3.144 3.144 0 00-.563-.226 3.8 3.8 0 00-1.104-.157 4.01 4.01 0 00-1.129.152 3.314 3.314 0 00-1.431.868c-.38.422-.74.98-.88 1.68h6.841zm11.959-5.679h-5.039v15.6h5.039v-6.12h5.641v6.12h5.039v-15.6H338.8v5.42h-5.641v-5.42z" fill="#253256"/></svg>
